public/icons/icon-modem.svg

<svg width="25" height="25" viewBox="0 0 25 25" fill="none" xmlns="http://www.w3.org/2000/svg">
<path d="M18.0059 16.6341C18.0059 17.1864 17.5581 17.6341 17.0059 17.6341C16.4536 17.6341 16.0059 17.1864 16.0059 16.6341C16.0059 16.0819 16.4536 15.6341 17.0059 15.6341C17.5581 15.6341 18.0059 16.0819 18.0059 16.6341Z" fill="#273D63"/>
<path fill-rule="evenodd" clip-rule="evenodd" d="M5.87188 3.13414C5.39359 2.858 4.782 3.02187 4.50586 3.50017C4.22972 3.97846 4.39359 4.59005 4.87188 4.86619L18.3264 12.6341H2.00586V16.6341C2.00586 18.8433 3.79672 20.6341 6.00586 20.6341H18.0059C20.215 20.6341 22.0059 18.8433 22.0059 16.6341V12.6341L5.87188 3.13414ZM20.0059 14.6341H4.00586V16.6341C4.00586 17.7387 4.90129 18.6341 6.00586 18.6341H18.0059C19.1104 18.6341 20.0059 17.7387 20.0059 16.6341V14.6341Z" fill="#273D63"/>
</svg>

<svg viewBox="0 0 25 25" fill="none" xmlns="http://www.w3.org/2000/svg"><path d="M18.006 16.634a1 1 0 1 1-2 0 1 1 0 0 1 2 0z" fill="#273D63"/><path fill-rule="evenodd" clip-rule="evenodd" d="M5.872 3.134a1 1 0 1 0-1 1.732l13.454 7.768H2.006v4a4 4 0 0 0 4 4h12a4 4 0 0 0 4-4v-4l-16.134-9.5zm14.134 11.5h-16v2a2 2 0 0 0 2 2h12a2 2 0 0 0 2-2v-2z" fill="#273D63"/></svg>
